X:1
T:Title
%%score ( 1 2 ) ( 3 4 )
L:1/8
Q:1/4=107
M:3/4
K:Eb
V:1 treble nm="Church Organ, Staff"
V:2 treble 
V:3 bass nm="Church Organ, Staff-1"
V:4 bass 
V:1
 [EG]2 [EG]4 | [EG]2 E4 | [EG]2 [FB]3 [Dc] | [FB]2 [EG]4 | [EG]2 [EA]4 | [DF]2 [EG]4 | %6
w: By~C.~C.~N.~Balle *||||||
 EF [EG]3 [FA] | [EG]2 [DF]4 | [DF]2 [DF]2 [EG]2 | [FA]2 [EG]4 | [EG]2 [DF]2 [EG]2 | [FA]2 [EG]4 | %12
w: ||||||
 [FB]2 [Ee]4 | [EG]2 F3 G | [CA]2 [B,E]4 | DF [B,E]4 |] %16
w: ||||
V:2
 x6 | x6 | x6 | x6 | x6 | x6 | x6 | x6 | x6 | x6 | x6 | x6 | x6 | z2 C4 | x6 | B,2 z2 z2 |] %16
V:3
 [E,B,]2 [E,B,]4 | [E,B,]2 [G,B,]4 | [E,B,]2 B,2- [B,,B,]2 | [D,B,]2 [E,B,]4 | [E,B,]2 [F,A,]4 | %5
w: The~ bells~|of~ Christ|mas~ chime~ *|once~ more;~|The~ heaven|
 [B,,B,]2 [E,B,]4 | [C,=A,]2 [B,,B,]4 | [B,,B,]2 [B,,B,]4 | B,2 B,4 | [D,B,]2 [E,B,]4 | %10
w: ly~ guest~|is~ at~|the~ door~|He~ comes~|to~ earth|
 [G,B,]2 B,4 | [D,B,]2 [E,B,]4 | [D,F,]2 [C,G,]4 | [C,G,]2 A,3 =E, | [A,,F,]2 [B,,G,]4 | %15
w: ly~ dwel|ling~ still~|With~ new~|year~ gifts~ *|of~ peace,~|
 [B,,A,]2 [E,G,]4 |] %16
w: good~ will~|
V:4
 x6 | x6 | z2 D,2 z2 | x6 | x6 | x6 | x6 | x6 | x6 | x6 | x6 | x6 | x6 | z2 A,,4 | x6 | x6 |] %16

